src/images/facebook-logo.svg

<?xml version="1.0" encoding="UTF-8"?>
<svg fill="none" viewBox="0 0 46 47" xmlns="http://www.w3.org/2000/svg">
<path d="m42.006 23.271c0-10.497-8.509-19.006-19.006-19.006s-19.006 8.509-19.006 19.006c0 9.4859 6.9505 17.349 16.037 18.774v-13.28h-4.8275v-5.4946h4.8275v-4.1871c0-4.7629 2.8357-7.3933 7.1786-7.3933 2.0792 0 4.2535 0.3706 4.2535 0.3706v4.6755h-2.3948c-2.3624 0-3.0979 1.4654-3.0979 2.9687v3.5656h5.2703l-0.8419 5.4927h-4.4284v13.281c9.0848-1.4255 16.035-9.2882 16.035-18.774z" clip-rule="evenodd" fill="#fff" fill-rule="evenodd"/>
</svg>

<svg width="46" height="47" viewBox="0 0 46 47" fill="none" xmlns="http://www.w3.org/2000/svg">
<path fill-rule="evenodd" clip-rule="evenodd" d="M42.0061 23.2714C42.0061 12.7744 33.4971 4.26538 23.0001 4.26538C12.5031 4.26538 3.99414 12.7744 3.99414 23.2714C3.99414 32.7573 10.9446 40.62 20.0314 42.0455V28.766H15.2039V23.2714H20.0314V19.0843C20.0314 14.3214 22.8671 11.691 27.21 11.691C29.2892 11.691 31.4635 12.0616 31.4635 12.0616V16.7371H29.0687C26.7063 16.7371 25.9708 18.2025 25.9708 19.7058V23.2714H31.2411L30.3992 28.7641H25.9708V42.0455C35.0556 40.62 42.0061 32.7573 42.0061 23.2714Z" fill="white"/>
</svg>
